src/assets/svg/diagrama.svg

<svg width="44" height="44" fill="none" xmlns="http://www.w3.org/2000/svg"><path fill-rule="evenodd" clip-rule="evenodd" d="M9 3C5.68629 3 3 5.68629 3 9v26c0 3.3137 2.68629 6 6 6h26c3.3137 0 6-2.6863 6-6V9c0-3.31371-2.6863-6-6-6H9Zm23.5 16.5555c1.2833 0 2.3333-1.1 2.3333-2.4444 0-1.3445-1.05-2.4445-2.3333-2.4445-1.2834 0-2.3334 1.1-2.3334 2.4445 0 .22.0234.4278.0817.6233l-4.1417 4.3511C25.92 22.0244 25.71 22 25.5 22c-.21 0-.42.0244-.6067.0855l-2.975-3.1166c.0583-.1956.0817-.4156.0817-.6356 0-1.3444-1.05-2.4444-2.3334-2.4444-1.2833 0-2.3333 1.1-2.3333 2.4444 0 .22.0233.44.0817.6356l-5.32 5.5611c-.1867-.0611-.385-.0856-.595-.0856-1.2834 0-2.33336 1.1-2.33336 2.4445 0 1.3444 1.04996 2.4444 2.33336 2.4444 1.2833 0 2.3333-1.1 2.3333-2.4444 0-.22-.0233-.4278-.0817-.6234l5.3084-5.5733c.1866.0611.3966.0856.6066.0856.21 0 .42-.0245.6067-.0856l2.975 3.1167c-.0583.1955-.0817.4155-.0817.6355 0 1.3445 1.05 2.4445 2.3334 2.4445 1.2833 0 2.3333-1.1 2.3333-2.4445 0-.22-.0233-.44-.0817-.6355L31.905 19.47c.1866.0611.385.0855.595.0855Z" fill="#6E78E8"/></svg>

<svg width="44" height="44" viewBox="0 0 44 44" fill="none" xmlns="http://www.w3.org/2000/svg">
<path fill-rule="evenodd" clip-rule="evenodd" d="M9 3C5.68629 3 3 5.68629 3 9V35C3 38.3137 5.68629 41 9 41H35C38.3137 41 41 38.3137 41 35V9C41 5.68629 38.3137 3 35 3H9ZM32.5 19.5555C33.7833 19.5555 34.8333 18.4555 34.8333 17.1111C34.8333 15.7666 33.7833 14.6666 32.5 14.6666C31.2166 14.6666 30.1666 15.7666 30.1666 17.1111C30.1666 17.3311 30.19 17.5389 30.2483 17.7344L26.1066 22.0855C25.92 22.0244 25.71 22 25.5 22C25.29 22 25.08 22.0244 24.8933 22.0855L21.9183 18.9689C21.9766 18.7733 22 18.5533 22 18.3333C22 16.9889 20.95 15.8889 19.6666 15.8889C18.3833 15.8889 17.3333 16.9889 17.3333 18.3333C17.3333 18.5533 17.3566 18.7733 17.415 18.9689L12.095 24.53C11.9083 24.4689 11.71 24.4444 11.5 24.4444C10.2166 24.4444 9.16664 25.5444 9.16664 26.8889C9.16664 28.2333 10.2166 29.3333 11.5 29.3333C12.7833 29.3333 13.8333 28.2333 13.8333 26.8889C13.8333 26.6689 13.81 26.4611 13.7516 26.2655L19.06 20.6922C19.2466 20.7533 19.4566 20.7778 19.6666 20.7778C19.8766 20.7778 20.0866 20.7533 20.2733 20.6922L23.2483 23.8089C23.19 24.0044 23.1666 24.2244 23.1666 24.4444C23.1666 25.7889 24.2166 26.8889 25.5 26.8889C26.7833 26.8889 27.8333 25.7889 27.8333 24.4444C27.8333 24.2244 27.81 24.0044 27.7516 23.8089L31.905 19.47C32.0916 19.5311 32.29 19.5555 32.5 19.5555Z" fill="#6E78E8"/>
</svg>
